X:200
M:C|
L:1/8
K:F
|:fgag afcf|dfcA G2G2|fgag afcf|dfcA F2F2:|
|:CFA,F CFBd|cAFA G2G2|CFA,F CF Bd|cAGA F2F2:|
fgag afcf|cdfa g2g2|fgag afcf|dfcA F2F2|fgag afcf|cdfa g2ga|
bage fdcf|cBAG F2F2||

